modules/hawcons-filled/icons/icon-28-three-fingers-swipe-left.svg

<?xml version="1.0" encoding="UTF-8" standalone="no"?>
<svg width="32px" height="32px" viewBox="0 0 32 32" version="1.1" xmlns="http://www.w3.org/2000/svg" xmlns:xlink="http://www.w3.org/1999/xlink" xmlns:sketch="http://www.bohemiancoding.com/sketch/ns">
    <!-- Generator: Sketch 3.0.3 (7891) - http://www.bohemiancoding.com/sketch -->
    <title>icon 28 three fingers swipe left</title>
    <desc>Created with Sketch.</desc>
    <defs></defs>
    <g id="Page-1" stroke="none" stroke-width="1" fill="none" fill-rule="evenodd" sketch:type="MSPage">
        <g id="icon-28-three-fingers-swipe-left" sketch:type="MSArtboardGroup" fill="#929292">
            <path d="M6,8 L13.049999,8 L13.049999,17.7983451 C10.9915994,15.5979243 8.28162878,13.1791206 7.17103171,14.2957153 C6.08386193,15.3887562 8.88536099,18.4007216 12.7973745,24.9830936 C14.5599948,27.9488875 16.7902839,29.9995418 20.549999,30 C24.6921348,30 28.049999,26.6421358 28.049999,22.5 L28.049999,19.2468012 L28.049999,14.5063976 C28.049999,13.6744372 27.3842018,13 26.549999,13 C25.7215719,13 25.049999,13.6764628 25.049999,14.5063976 L25.049999,16.7497253 L25.049999,17 L24.049999,17 L24.049999,14.6781559 L24.049999,7.4912653 C24.049999,6.66766222 23.3842018,6 22.549999,6 C21.7215719,6 21.049999,6.66254437 21.049999,7.4912653 L21.049999,14.5082011 L21.049999,16 L20.049999,16 L20.049999,14.5082011 L20.049999,5.49089813 C20.049999,4.66749783 19.3842018,4 18.549999,4 C17.7215719,4 17.049999,4.67622006 17.049999,5.49089813 L17.049999,14.4325233 L17.049999,17 L16.049999,17 L16.049999,14.5 L16.049999,7.50863659 C16.049999,6.67543961 15.3842018,6 14.549999,6 C13.8977039,6 13.3426558,6.41316896 13.1361237,7 L13.1361237,7 L6,7 L9.25,3.75 L8.5,3 L4,7.5 L8.5,12 L9.25,11.25 L6,8 L6,8 Z" id="three-fingers-swipe-left" sketch:type="MSShapeGroup"></path>
        </g>
    </g>
</svg>

<svg width="32" height="32" xmlns="http://www.w3.org/2000/svg"><path d="M6 8h7.05v9.798c-2.058-2.2-4.768-4.619-5.879-3.502-1.087 1.093 1.714 4.105 5.626 10.687C14.56 27.95 16.79 30 20.55 30a7.5 7.5 0 0 0 7.5-7.5v-7.993a1.5 1.5 0 1 0-3 0V17h-1V7.491c0-.823-.666-1.491-1.5-1.491-.828 0-1.5.663-1.5 1.491V16h-1V5.491a1.501 1.501 0 0 0-3 0V17h-1V7.509A1.5 1.5 0 0 0 13.136 7H6l3.25-3.25L8.5 3 4 7.5 8.5 12l.75-.75L6 8z" fill="#929292" fill-rule="evenodd"/></svg>
